svg/abugida_devanagari.svg

<svg xmlns="http://www.w3.org/2000/svg" viewBox="0 0 24 24"><path d="M8 3v2h3c1.32 0 2.41.83 2.82 2H6v2h8v1h-2c-2.75 0-5 2.25-5 5s2.25 5 5 5c.77 0 1.45-.27 2-.7V21h2v-4h-2c-.45.62-1.17 1-2 1-1.67 0-3-1.33-3-3s1.33-3 3-3h4V9h2V7h-2.1c-.47-2.28-2.49-4-4.9-4z"/></svg>

<?xml version="1.0" encoding="UTF-8"?><!DOCTYPE svg PUBLIC "-//W3C//DTD SVG 1.1//EN" "http://www.w3.org/Graphics/SVG/1.1/DTD/svg11.dtd"><svg xmlns="http://www.w3.org/2000/svg" xmlns:xlink="http://www.w3.org/1999/xlink" version="1.1" id="mdi-abugida-devanagari" width="24" height="24" viewBox="0 0 24 24"><path d="M8 3V5H11C12.32 5 13.41 5.83 13.82 7H6V9H14V10H12C9.25 10 7 12.25 7 15C7 17.75 9.25 20 12 20C12.77 20 13.45 19.73 14 19.3V21H16V17H14C13.55 17.62 12.83 18 12 18C10.33 18 9 16.67 9 15C9 13.33 10.33 12 12 12H16V9H18V7H15.9C15.43 4.72 13.41 3 11 3H8Z" /></svg>
